X:1
T:Den norske Sjømand
T:Den norske Sjømand
T:Tilegnet Joh. D. Behrens og hans Sangerskare
T:Edvard Grieg
T:Bjørnstjerne Bjørnson
C:Edvard Grieg
Z:Bjørnstjerne Bjørnson
%%score [ 1 2 3 4 ]
L:1/8
Q:1/4=144
M:4/4
K:D
V:1 treble-8 nm="T1"
V:2 treble-8 nm="T2"
V:3 bass nm="Baryton" snm="Bar."
V:4 bass nm="Bass" snm="B."
V:1
"^staccato""^Allegro e vivace"!f! A2 | d2 f2 d2 f2 | d2 f2 a2 (fd) | B2 (ge) c2 (af) | %4
w: 1.Den|nor- ske Sjø- mand|er et gjen- nem- *|bar- ket _ Fol- ke- *|
w: 2.Den|ves- le Fi- sker-|baad har baa- ret _|frem saa _ man- gen _|
w: 3.Dog|Nor- ges høi- e|Kyst er Lan- dets _|e- get _ Mo- der- *|
w: 4.Det|føl- te hver, som|kom fra Reis i- *|gjen, og _ saa sig _|
w: 5.Hur-|ra for dem i-|dag, som fa- rer _|un- der _ nor- ske _|
 d4 z2!f! A2 | d2 f2 d2 f2 | d2 f2 a2 f2 | !>!d4 !>!B4 | !>!A4 z2!mf! A2 | !>!e3 e .f2 .d2 | %10
w: færd; hvor|Far- tøi fly- de|kan, der er han|før- ste|Mand. Paa|Togt og hjem- me|
w: Daad af|Mod og her- lig|Kløgt, skjønt al- drig|den blev|trykt. Og|man- gen Sjø- mands|
w: bryst med|Næ- ring og med|Graad ved Søn- ners|ra- ske|Daad. I|det er Al- ting|
w: om; det|føl- te hver, som|gik i sid- ste|Af- skeds-|blik. De|føl- te hvor de|
w: Flag! Hur-|ra for Lod- sen,|som dem først i|mø- de|kom! Hur-|ra for dem, som|
 !>!e6 (fd) | !>!e2 A2 A2 (fd) | !>!e2 A2 A2 (fd) |"^cresc." e2 (f"^e rit."d) e2 (fd) | %14
w: her ved _|Sund og Skjær og _|Fi- ske- vær, ved _|Skjær og _ Fi- ske- *|
w: Liv fik _|Dø- dens Krans af _|Tang og Siv, fik _|Krans af _ Tang og _|
w: gjemt, og _|der er ei den _|Mind- ste glemt, er _|ei den _ Mind- ste _|
w: for, at _|Lan- dets Lyk- ke _|var om- bord, dets _|Lyk- ke _ var om- *|
w: ror sin _|Fi- sker- baad paa _|Hav og Fjord, som _|ror paa _ Hav og _|
!f! !fermata!a6!ff!"^a tempo" A2 | !>!d6 (cB) | A2 G2 F2 !>!F2 | !>!f6 (ed) | c2 B2 A2!p! B2 | %19
w: vær, han|har sin _|Gud i Sind og|sæt- ter _|Li- vet ind, han|
w: Siv, som|bur- de _|havt i Guld sit|Navn blandt _|Kjæm- pe- kuld, som|
w: glemt fra|Ha- furs- *|fjor- dens Dag til|ham paa _|sid- ste Vrag, fra|
w: bord; vor|Æ- re _|og vor Magt har|hvi- de _|Seil os bragt; vor|
w: Fjord. Hur-|ra for _|Al- les Lyst: vor|skjær- om- *|kran- ste Kyst! Hur-|
"^marc. e""^cresc." G2 A2 F2 B2 | G2"^rit." A2 F2 G2 |!ff! !>!A4 !>!c4 | !>!d6 z2 |] %23
w: har sin Gud i|Sind og sæt- ter|Li- vet|ind.|
w: bur- de havt i|Guld sit Navn blandt|Kjæm- pe-|kuld.|
w: Ha- furs- fjor- dens|Dag til ham paa|sid- ste|Vrag.|
w: Æ- re og vor|Magt har hvi- de|Seil os|bragt.|
w: ra for Al- les|Lyst: vor skjær- om-|kran- ste|Kyst.|
V:2
"^staccato"!f! A2 | A2 d2 A2 d2 | A2 d2 A2 d2 | B2 B2 c2 c2 | A4 z2!f! A2 | A2 d2 A2 d2 | %6
 A2 d2 A2 d2 | !>!F4 !>!^G4 | !>!A4 z2!mf! A2 | !>!c3 c .d2 .B2 | !>!c6 (dB) | !>!c2 A2 A2 (dB) | %12
 !>!c2 A2 A2 (dB) |"^cresc." c2"^e rit." (dB) c2 (dB) |!f! !fermata!e6!ff!"^a tempo" A2 | %15
 !>!d6 (cB) | A2 G2 F2 !>!F2 | !>!f6 (ed) | c2 B2 A2!p! B2 |"^marc. e""^cresc." G2 A2 F2 B2 | %20
 G2"^rit." A2 F2 E2 |!ff! !>!F4 !>!A4 | !>!A6 z2 |] %23
V:3
!f!"^staccato"!f! A,2 | F,2 A,2 F,2 A,2 | F,2 A,2 D2 A,2 | G,2 G,2 A,2 G,2 | F,4 z2!f! A,2 | %5
 F,2 A,2 F,2 A,2 | F,2 A,2 D2 A,2 | !>!A,4 !>!D,4 | !>!C,4 z2!mf! A,2 | !>!A,3 A, .A,2 .A,2 | %10
 !>!A,6 A,2 | !>!A,2 A,,2 A,,2 A,2 | !>!A,2 A,,2 A,,2 A,2 |"^cresc." A,2"^e rit" A,2 A,2 A,2 | %14
!f! !fermata!C6!ff!"^a tempo" A,2 | !>!D6 (CB,) | A,2 G,2 F,2 !>!D,2 | !>!D6 (CB,) | %18
 A,2 G,2 F,2!p! F,2 |"^marc. e""^cresc." E,2 E,2 =D,2 F,2 | E,2"^rit." E,2 =D,2 D,2 | %21
!ff! !>!D,4 (!>!E,2 G,2) | !>!F,6 z2 |] %23
V:4
!f!"^staccato"!f! A,2 | D,2 A,,2 D,2 A,,2 | D,2 A,,2 F,2 (D,F,) | G,2 (E,G,) A,2 A,,2 | %4
 D,4 z2!f! A,2 | D,2 A,,2 D,2 A,,2 | D,2 A,,2 F,2 D,2 | !>!B,,4 !>![E,,E,]4 | !>!A,,4 z2!mf! A,2 | %9
 !>!A,3 A,, .D,2 .F,2 | !>!A,6 (D,F,) | !>!A,2 A,,2 A,,2 (D,F,) | !>!A,2 A,,2 A,,2 (D,F,) | %13
"^cresc." A,2"^e rit." (D,F,) A,2 (D,F,) |!f! !fermata!A,6"^a tempo"!ff! A,2 | !>!D6 (CB,) | %16
 A,2 G,2 F,2 !>!D,2 | !>!D6 (CB,) | A,2 G,2 F,2!p! ^D,2 |"^marc. e""^cresc." E,2 C,2 D,2 ^D,2 | %20
 E,2"^rit." C,2 D,2 B,,2 |!ff! !>!A,,4 !>!A,,4 | !>!D,6 z2 |] %23

